X:7985
T:Jigging the Donkey
T:Jig away the Donkey
R:reel
D:Arty McGlynn & Nollaig Casey: Lead the Knave
Z:id:hn-reel-130
M:C|
K:Ador
~A3G ABcB|(3ABA GE D2 (3EFG|~A3G ABcB|(3ABA GE ADD2:|
|:eaag ~e3d|cdeg gedB|1 eaag ~e3d|cA (3BAG A2Bd:|2 c2AB cdef|gedB c2Bc||
